Adwaita++-Dark/actions/16/mail-message-new-list.svg

<svg height="16" viewBox="0 0 16 16" width="16" xmlns="http://www.w3.org/2000/svg">
  <path d="m2 2c-1.108 0-2 .892-2 2v8c0 1.108.892 2 2 2h8v-1a1.0001 1.0001 0 0 1 .134766-.5 1.0001 1.0001 0 0 1 -.134766-.5v-1a1.0001 1.0001 0 0 1 .134766-.5 1.0001 1.0001 0 0 1 -.134766-.5v-1a1.0001 1.0001 0 0 1 1-1h5v-4c0-1.108-.892-2-2-2zm0 2 6 3 6-3v2l-6 3-6-3zm9 5v1h5v-1zm0 2v1h5v-1zm0 2v1h5v-1z" fill="#e6ddff"/>
</svg>

<svg xmlns="http://www.w3.org/2000/svg" width="16" height="16" viewBox="0 0 16 16">
 <defs>
  <style id="current-color-scheme" type="text/css">
   .ColorScheme-Text { color:#E6DDFF; } .ColorScheme-Highlight { color:#4285f4; }
  </style>
 </defs>
 <path style="fill:currentColor" class="ColorScheme-Text" d="M 2 2 C 0.892 2 0 2.892 0 4 L 0 12 C 0 13.108 0.892 14 2 14 L 10 14 L 10 13 A 1.0001 1.0001 0 0 1 10.134766 12.5 A 1.0001 1.0001 0 0 1 10 12 L 10 11 A 1.0001 1.0001 0 0 1 10.134766 10.5 A 1.0001 1.0001 0 0 1 10 10 L 10 9 A 1.0001 1.0001 0 0 1 11 8 L 16 8 L 16 4 C 16 2.892 15.108 2 14 2 L 2 2 z M 2 4 L 8 7 L 14 4 L 14 6 L 8 9 L 2 6 L 2 4 z M 11 9 L 11 10 L 16 10 L 16 9 L 11 9 z M 11 11 L 11 12 L 16 12 L 16 11 L 11 11 z M 11 13 L 11 14 L 16 14 L 16 13 L 11 13 z"/>
</svg>
